dist/img/orig/benefits-Investigative — копия.svg

<svg width="38" height="32" viewBox="0 0 38 32" fill="none" xmlns="http://www.w3.org/2000/svg">
<path fill-rule="evenodd" clip-rule="evenodd" d="M36.9114 19.2896C36.9114 19.2896 30.745 6.35973 29.9443 4.24354C29.1803 2.22483 28.1952 0.335033 26.0363 0.335033C24.9983 0.33003 24.0014 0.740212 23.2674 1.47429C22.5334 2.20836 22.1233 3.20541 22.1283 4.24354C22.0623 4.86194 21.9187 6.83664 21.75 8.67717H16.249C16.0394 6.44358 15.8833 4.34416 15.8738 4.24354C15.6841 2.04979 14.8091 0.333984 11.9658 0.333984C9.80695 0.333984 8.91614 2.26256 8.05783 4.24249C7.36824 5.82518 0.937703 19.582 0.937703 19.582H0.952375C-0.428769 22.786 0.263886 26.5072 2.70534 28.9995C5.14679 31.4918 8.8525 32.2606 12.0837 30.9452C15.3149 29.6297 17.4304 26.4912 17.4374 23.0021C17.4374 22.7379 17.4217 21.4655 17.3976 21.2077H20.6024C20.5794 21.4655 20.5626 22.739 20.5626 23.0021C20.5666 26.5322 22.7284 29.7008 26.0136 30.9917C29.2987 32.2827 33.0391 31.4333 35.4447 28.8501C37.8504 26.2669 38.432 22.4753 36.9114 19.2896V19.2896ZM8.83545 28.6327C5.72732 28.6327 3.20768 26.1127 3.20768 23.0042C3.20768 19.8956 5.72732 17.3757 8.83545 17.3757C11.9436 17.3757 14.4632 19.8956 14.4632 23.0042C14.4632 24.4969 13.8703 25.9286 12.8149 26.9841C11.7595 28.0397 10.328 28.6327 8.83545 28.6327ZM23.9613 25.1639C23.0876 23.061 23.567 20.6387 25.1759 19.0272C26.7848 17.4157 29.206 16.9326 31.31 17.8033C33.414 18.674 34.7861 20.7269 34.7861 23.0042C34.7821 26.1078 32.2699 28.6241 29.1667 28.6327C26.8897 28.6361 24.835 27.2669 23.9613 25.1639Z" fill="#040858"/>
</svg>

<svg width="38" height="32" fill="none" xmlns="http://www.w3.org/2000/svg"><path fill-rule="evenodd" clip-rule="evenodd" d="M36.911 19.29S30.745 6.36 29.944 4.244C29.18 2.224 28.195.335 26.036.335a3.89 3.89 0 00-3.908 3.909c-.066.618-.21 2.593-.378 4.433h-5.501c-.21-2.233-.366-4.333-.375-4.433-.19-2.194-1.065-3.91-3.908-3.91-2.159 0-3.05 1.929-3.908 3.908-.69 1.583-7.12 15.34-7.12 15.34h.014a8.596 8.596 0 0011.132 11.363 8.595 8.595 0 005.353-7.943c0-.264-.015-1.537-.04-1.794h3.205c-.023.258-.04 1.531-.04 1.794a8.595 8.595 0 1016.35-3.712zM8.835 28.633a5.628 5.628 0 11.001-11.257 5.628 5.628 0 010 11.257zm15.126-3.47a5.629 5.629 0 1110.825-2.159 5.635 5.635 0 01-5.62 5.629 5.628 5.628 0 01-5.205-3.47z" fill="#040858"/></svg>
